apps/64/pdf-viewer.svg

<?xml version="1.0" encoding="UTF-8" standalone="no"?>
<!-- Created with Inkscape (http://www.inkscape.org/) -->

<svg
   xmlns:dc="http://purl.org/dc/elements/1.1/"
   xmlns:cc="http://creativecommons.org/ns#"
   xmlns:rdf="http://www.w3.org/1999/02/22-rdf-syntax-ns#"
   xmlns:svg="http://www.w3.org/2000/svg"
   xmlns="http://www.w3.org/2000/svg"
   xmlns:sodipodi="http://sodipodi.sourceforge.net/DTD/sodipodi-0.dtd"
   xmlns:inkscape="http://www.inkscape.org/namespaces/inkscape"
   width="64"
   height="64"
   id="svg13094"
   version="1.1"
   inkscape:version="0.48.4 r9939"
   sodipodi:docname="pdf-viewer.svg">
  <sodipodi:namedview
     id="base"
     pagecolor="#ffffff"
     bordercolor="#666666"
     borderopacity="1.0"
     inkscape:pageopacity="0"
     inkscape:pageshadow="2"
     inkscape:zoom="11.313708"
     inkscape:cx="33.694809"
     inkscape:cy="33.048168"
     inkscape:document-units="px"
     inkscape:current-layer="svg13094"
     showgrid="true"
     inkscape:snap-bbox="true"
     inkscape:bbox-paths="true"
     inkscape:bbox-nodes="true"
     inkscape:snap-bbox-edge-midpoints="true"
     inkscape:snap-bbox-midpoints="true"
     inkscape:object-paths="true"
     inkscape:snap-intersection-paths="true"
     inkscape:object-nodes="true"
     inkscape:snap-smooth-nodes="true"
     inkscape:snap-midpoints="true"
     inkscape:snap-object-midpoints="true"
     inkscape:snap-center="true"
     showguides="true"
     inkscape:guide-bbox="true"
     inkscape:window-width="1920"
     inkscape:window-height="1025"
     inkscape:window-x="-2"
     inkscape:window-y="32"
     inkscape:window-maximized="1"
     inkscape:snap-global="true"
     fit-margin-top="0"
     fit-margin-left="0"
     fit-margin-right="0"
     fit-margin-bottom="0"
     showborder="true"
     inkscape:showpageshadow="false"
     inkscape:snap-page="true">
    <inkscape:grid
       type="xygrid"
       id="grid3075"
       empspacing="5"
       visible="true"
       enabled="true"
       snapvisiblegridlinesonly="true"
       originx="1.6362304e-08px"
       originy="18px" />
  </sodipodi:namedview>
  <defs
     id="defs13096" />
  <metadata
     id="metadata13099">
    <rdf:RDF>
      <cc:Work
         rdf:about="">
        <dc:format>image/svg+xml</dc:format>
        <dc:type
           rdf:resource="http://purl.org/dc/dcmitype/StillImage" />
        <dc:title />
      </cc:Work>
    </rdf:RDF>
  </metadata>
  <path
     inkscape:connector-curvature="0"
     style="color:#000000;fill:#d2432b;fill-opacity:1;fill-rule:nonzero;stroke:none;stroke-width:2.28571415000000000;marker:none;visibility:visible;display:inline;overflow:visible;enable-background:accumulate"
     d="m 0,8 0,26 0,28 2,2 30,0 30,0 2,-2 0,-28 0,-26 -32,0 z"
     id="path4095"
     sodipodi:nodetypes="ccccccccccc" />
  <path
     inkscape:connector-curvature="0"
     style="color:#000000;fill:#ff7e5f;fill-opacity:1;fill-rule:nonzero;stroke:none;stroke-width:2.28571415000000000;marker:none;visibility:visible;display:inline;overflow:visible;enable-background:accumulate"
     d="M 2,0 0,1 0,8 32,8 64,8 64,1 62,0 32,0 z"
     id="path4090"
     sodipodi:nodetypes="ccccccccc" />
  <path
     d="M 64,10 62,8 64,7 z"
     id="path3028"
     style="fill:#e96247;fill-opacity:1"
     inkscape:connector-curvature="0"
     sodipodi:nodetypes="cccc" />
  <g
     id="g3043"
     inkscape:export-filename="folder.png"
     inkscape:export-xdpi="90"
     inkscape:export-ydpi="90"
     transform="translate(-0.62500009,0.082283)" />
  <g
     id="scalable"
     transform="matrix(1.0385892,0,0,1.0385892,1214.7222,1878.8121)"
     inkscape:label="#g3701"
     style="fill:#ffffff" />
  <path
     style="color:#000000;fill:#ab3723;fill-opacity:1;fill-rule:nonzero;stroke:none;stroke-width:2.28571415000000000;marker:none;visibility:visible;display:inline;overflow:visible;enable-background:accumulate"
     d="M 3 2 L 3 4 L 61 4 L 61 6 L 64 6 L 64 4 L 64 2 L 3 2 z "
     id="rect3178" />
  <path
     id="path3952"
     d="M 3,4 61,4 61,6 3,6 z"
     style="color:#000000;fill:#f1ebeb;fill-opacity:1;fill-rule:nonzero;stroke:none;stroke-width:1;marker:none;visibility:visible;display:inline;overflow:visible;enable-background:accumulate"
     inkscape:connector-curvature="0" />
  <path
     style="color:#000000;fill:#000000;fill-opacity:0.07341092;fill-rule:nonzero;stroke:none;stroke-width:1.06597184999999994;marker:none;visibility:visible;display:inline;overflow:visible;enable-background:accumulate"
     d="M 3,2 5,4 5,6 3,6 z"
     id="rect3143"
     inkscape:connector-curvature="0"
     sodipodi:nodetypes="ccccc" />
  <path
     style="color:#000000;fill:#ecd9d9;fill-opacity:1;fill-rule:nonzero;stroke:none;stroke-width:1;marker:none;visibility:visible;display:inline;overflow:visible;enable-background:accumulate"
     d="M 28.4375 8 C 25.938317 18.086924 16.626672 26.868822 0 31.625 L 0 32.1875 C 16.681001 28.026391 31.164958 20.021045 36.5 8 L 28.4375 8 z M 48.09375 16.90625 C 28.329433 16.93045 9.4501522 28.907462 0 59.8125 L 0 62 L 2 64 L 10.0625 64 C 16.842713 34.596891 34.655936 14.948758 60 19.375 L 60 18.28125 C 59.518585 18.172138 59.044727 18.065244 58.5625 17.96875 C 55.074353 17.270768 51.573679 16.901989 48.09375 16.90625 z "
     id="path3813" />
  <path
     style="fill:#ff967d;fill-opacity:1;fill-rule:nonzero"
     d="M 0,7 0,10 2,8 z"
     id="path4298"
     inkscape:connector-curvature="0"
     sodipodi:nodetypes="cccc" />
</svg>

<?xml version="1.0" encoding="UTF-8"?>
<svg id="j" width="64" height="64" version="1.1" xmlns="http://www.w3.org/2000/svg" xmlns:cc="http://creativecommons.org/ns#" xmlns:dc="http://purl.org/dc/elements/1.1/" xmlns:rdf="http://www.w3.org/1999/02/22-rdf-syntax-ns#">
	<defs id="p">
		<radialGradient id="b" cx="50.837" cy="65.064" r="32" gradientTransform="matrix(2.2148 -1.5171e-8 0 2 -62.441 -68.766)" gradientUnits="userSpaceOnUse">
			<stop id="g" style="stop-color:#550045;stop-opacity:.2446" offset="0"/>
			<stop id="f" style="stop-color:#480d42;stop-opacity:.004878" offset="1"/>
		</radialGradient>
		<radialGradient id="a" cx="30.45" cy="37.383" r="32" gradientTransform="matrix(2.2148 -1.5171e-8 0 2 -62.441 -68.766)" gradientUnits="userSpaceOnUse">
			<stop id="n" style="stop-color:#000000;stop-opacity:.18824" offset="0"/>
			<stop id="o" style="stop-color:#000000;stop-opacity:0" offset="1"/>
		</radialGradient>
	</defs>
	<metadata id="m">
		<rdf:RDF>
			<cc:Work rdf:about="">
				<dc:format>image/svg+xml</dc:format>
				<dc:type rdf:resource="http://purl.org/dc/dcmitype/StillImage"/>
				<dc:title/>
			</cc:Work>
		</rdf:RDF>
	</metadata>
	<path id="h" d="m0 8v54l2 2h60l2-2v-54h-32z" style="color:#000000;fill:#f94219;font-variant-east_asian:normal"/>
	<path id="u" d="m2 0-2 1v7h64v-7l-2-1h-30z" style="color:#000000;fill:#ff6e6a"/>
	<path id="c" d="m64 10-2-2 2-1z" style="fill:#f65346"/>
	<path id="r" d="m3 2v2h58v2h3v-4h-61z" style="color:#000000;fill:#ab3723"/>
	<path id="s" d="m3 4h58v2h-58z" style="color:#000000;fill:#f9f7f7"/>
	<path id="e" d="m3 2 2 2v2h-2z" style="color:#000000;fill-opacity:.073411;fill:#000000"/>
	<path id="q" d="m28.438 8c-2.4992 10.087-11.811 18.869-28.438 23.625v0.5625c16.681-4.1611 31.165-12.166 36.5-24.188h-8.0625zm19.656 8.9062c-19.764 0.0242-38.644 12.001-48.094 42.906v2.1875l2 2h8.0625c6.7802-29.403 24.593-49.051 49.938-44.625v-1.0938c-0.48142-0.10911-0.95527-0.21601-1.4375-0.3125-3.4881-0.69798-6.9888-1.0668-10.469-1.0625z" style="color:#000000;fill:#f9e5e5"/>
	<path id="k" d="m28.438 8v-2h8.0625v2z" style="fill:#ffffff;paint-order:normal"/>
	<path id="i" d="m28.438 2v-2h8.0625v2z" style="fill:#ffffff;paint-order:normal"/>
	<path id="l" d="m28.438 2v2h8.0625v-2z" style="fill:#f2c7c7;paint-order:normal"/>
	<path id="t" d="m0 8v54l2 2h60l2-2v-54h-32z" style="color:#000000;fill:url(#b)"/>
	<path id="v" d="m0 8v54l2 2h60l2-2v-54h-32z" style="color:#000000;fill:url(#a)"/>
	<path id="d" d="m0 7v3l2-2z" style="fill:#ff9997"/>
</svg>
